X: 9854
T: Derek Pelley's
R: reel
M: 4/4
K: Eminor
|:EFGF EFGE|B2B2 GEE2|cBAG FGAB|c2ce B3B|
cedc B~E3|cBAG F2AB|c2e2- ee2e|dcBA G~E3:|
|:BBBB G3F|eded e2c2|AAAA F3G|AGFG ABGF|
E2 ee d2 ee|AAAA F3G|AGFG AFB2|AGFG E4:|

